!!!COM: Gustav Mahler
!!!CNT: Deutsch
!!!TXO: Deutsch
!!!OTL: "Wer hat dies Liedlein erdacht?"
!!!LYR: Des Knaben Wunderhorn
!!!OPR: Des Knaben Wunderhorn, Part 1
!!!ENC: O'Neal Douglas
!!!YOR: CD Sheet Music: Late Romantic German Lieder
!!!YOR: CD Sheet Music, LLC, 2001
!!!ODT: 1892/
!!NB: Vocal melody and text encoded.
**kern	**text
*staff1	*staff1
*clefG2	*
*k[b-]	*
*M3/8	*
*MM60	*
8r	.
=1	=1
4.r	.
=2	=2
4.r	.
=3	=3
4.r	.
=4	=4
4.r	.
=5	=5
4.r	.
=6	=6
4.r	.
=7	=7
4.r	.
=8	=8
4.r	.
=9	=9
4.r	.
=10	=10
4.r	.
=11	=11
4.r	.
=12	=12
8r	.
8r	.
{(16a	{Dort
16b-)	|
=13	=13
8cc	o-
8cc	-ben
(16a	am
16b-)	|
=14	=14
4cc	Berg
16a	in
16b-	dem
=15	=15
(16cc	ho-
16ff	|
16cc	|
16b-)	|
(16a	-hen
16b-)	|
=16	=16
4cc	Haus!
16a	In
16b-	dem
=17	=17
4cc}	Haus!}
8r	.
=18	=18
4.r	.
=19	=19
4.r	.
=20	=20
4r	.
{8f	{Da
=21	=21
8f	guk-
8dd	-ket
8dd	ein
=22	=22
4dd	fein's,
8f	lieb's
=23	=23
8f	Ma2-
8cc	-del
8cc	her-
=24	=24
4cc	-aus.
8a	Es
=25	=25
8a	ist
(16g	nicht
16f)	|
16d	dort
16f	da-
=26	=26
8a	hei
8g}	-me!}
16r	.
{16f	{Es
=27	=27
8a	ist
(16g	nicht
16f)	|
16d	dort
16f	da-
=28	=28
8a	-hei-
8g	-me!
8f	Es
=29	=29
(8e	ist
8cc)	|
8cc	des
=30	=30
(8e	Wirsts
8cc)	|
8cc	sein
=31	=31
(16e	To2ch-
16g	|
16f	|
16e)	|
(16d	-ter-
16e)	|
=32	=32
8c}	-lein!}
8r	.
{8c	{Es
=33	=33
8f	woh-
8f	-net
8g	auf
=34	=34
4a	gru@-
8b-	-ner
=35	=35
(16cc	Hei-
16ff	|
16cc	|
16b-	|
16a	|
16b-	|
=36	=36
16cc	|
16ff	|
16cc	|
16b-	|
16a	|
16b-	|
=37	=37
16cc	|
16ff	|
16cc	|
16b-	|
16a	|
16b-	|
=38	=38
16cc	|
16ee-	|
16dd	|
16cc	|
16b-	|
16a	|
=39	=39
16b-	|
16dd	|
16b-	|
16a	|
16g	|
16a	|
=40	=40
16b-	|
16dd-	|
16cc	|
16b-	|
16a	|
16g	|
=41	=41
8a)	|
8r	.
(16f	|
16g	|
=42	=42
16a	|
16b-	|
16a	|
16g	|
16a	|
16b-	|
=43	=43
16a	|
16b-	|
16a	|
16g	|
16a	|
16b-	|
=44	=44
16a	|
16bn	|
16cc#	|
16dd	|
16ee	|
16ff	|
=45	=45
16cc	|
16dd	|
16cc	|
16a	|
16b-	|
16g	|
=46	=46
8f)}	-de!}
8r	.
{8e	{Mein
=47	=47
8a	Herz-
(16a	-le
16bn)	|
(16cc#	ist
16b)	|
=48	=48
8a	wund!
8r	.
8e	Komm,
=49	=49
8f	Scha2tz-
(16f	-le,
16e)	|
(16f	mach's
16a)	|
=50	=50
(8e	g'sund!
8c#)}	|}
{8e	{Dein'
=51	=51
8a	schwarz-
(16a	-brau-
16g#)	|
(16a	-ne
16bn)	|
=52	=52
8cc	A2ug-
(16ff	-lein,
16cc)	|
(16b-	die
16a)	|
=53	=53
8g	hab'n
(16g	mich
16f#)	|
(16g	ver
16b-)	|
=54	=54
8a}	wundt!}
8r	.
{8a-	{Dein
=55	=55
8dd-	ro-
(16dd-	-si-
16ee-)	|
(16ff	-ger
16ee-)	|
=56	=56
4dd-	Mund
8a-	macht
=57	=57
8a	Her-
(16a	-zen
16g#)	|
(16a	ge-
16cc#)	|
=58	=58
4a-}	-sund.}
{(16f	{Macht
16g)	|
=59	=59
8dd-	Ju-
(16dd-	-gend
16cc)	|
(16dd-	ver-
16ee-)	|
=60	=60
8ee	-sta2n-
(16ee	-dig,
16dd#)	|
(16ee	macht
16ff#)	|
=61	=61
8dd#	To-
(16dd#	-te
16cc##)	|
(16dd#	le-
16ee)	|
=62	=62
8ff#	-ben-
(16ff#	-dig,
16ee#)	|
(16ff#	macht
16gg#)	|
=63	=63
8ff	Kran-
(16ff	-ke
16ee)	|
(16ff	ge-
16gg-)	|
=64	=64
8ff	-sund,
8r	.
8ff	macht
=65	=65
8ff	Kran-
(16ff	-ke
16ee)	|
(16ff	ge-
16gg-)	|
=66	=66
8ff	-sund,
(16ff	ja,
16ee)	|
(16ff	ge-
16gg-)	|
=67	=67
8ff}	-sund}
8r	.
8r	.
=68	=68
8r	.
8r	.
{8c	{Wer
=69	=69
8f	hat
8f	denn
8g	das
=70	=70
8a	scho2n
8a	scho2-
8b-	-ne
=71	=71
8cc	Lied-
(16cc	-lein
16ff)	|
(16dd	er-
16ff)	|
=72	=72
4cc	-dacht?
8cc	Es
=73	=73
8dd	ha-
8f	-ben's
8f	drei
=74	=74
8f	Ga2ns'
(16b-	u2-
16dd)	|
(16ff	-bers
16dd)	|
=75	=75
8cc	Was-
8f	-ser
8f	ge-
=76	=76
4f}	-bracht.}
{8f	{Zwei
=77	=77
8a	grau-
16g	-e
16f	und
16d	ei-
16f	-ne
=78	=78
8a	wei-
8g	-sse!
16r	.
16f	Zwel
=79	=79
8a	grau-
16g	-e
16f	und
16d	ei-
16f	-ne
=80	=80
8a	wei-
8g	-sse!
(16f	Und
16a)	|
=81	=81
(8cc	wer
8ff)	|
(16a	das
16b-)	|
=82	=82
8cc	Lied-
8ff	-lein
(16a	nicht
16b-)	|
=83	=83
(8cc	sin-
8ff)	|
(16a	-gen
16b-)	|
=84	=84
(8cc	kann,
8ff)	|
(16a	dem
16b-)	|
=85	=85
(8cc	wol-
8ff)	|
(16a	-len
16b-)	|
=86	=86
(8cc	sie
8ff)	|
(16a	es
16b-)	|
=87	=87
8cc	pfei-
8ff}	-fen!}
{(16a	{Ja.
16bn	|
=88	=88
4cc)	|
(16a	|
16b-	|
=89	=89
16cc	|
16ee-	|
16dd	|
16cc	|
16b-	|
16a	|
=90	=90
8b-)	|
8r	.
(16g	|
16a	|
=91	=91
16b-	|
16dd-	|
16cc	|
16b-	|
16a	|
16g	|
=92	=92
4a)	|
(16f	|
16g	|
=93	=93
16a	|
16b-	|
16a	|
16g#	|
16f	|
16gn	|
=94	=94
8a)	|
8r	.
(16f	|
16g	|
=95	=95
16a	|
16bn	|
16cc#	|
16dd	|
16ee	|
16ff	|
=96	=96
16cc	|
16ff	|
16cc	|
16a	|
16b-	|
16g	|
=97	=97
8f)}	|}
8r	.
8r	.
==	==
*-	*-
